X:1
T:Title
%%score { ( 1 3 ) | ( 2 4 ) }
L:1/8
M:4/4
K:Bb
V:1 treble nm="Grand Piano"
V:3 treble 
V:2 bass 
V:4 bass 
V:1
 z4 z2[Q:1/4=100] F2 | d4 z4 | F6 z2 | z FF[FB] ccee | d6 z2 | d4 z4 | F6 z2 | %7
 G[FA][GB][Ge] [Fd]2 [A,Ec]2 |[M:3/4] [DB]6 |[M:1/4] F2 |[M:4/4] z2 F2 z4 | %11
 [B,FB]2 [B,DB]2 [DF]2 [Fd]2 | d3 c BGBd | c6 z2 | d4 z4 | F6 z2 | G[FA][GB][Ge] [Fd]2 [A,Ec]2 | %17
[M:3/4] [DB]6 |] %18
V:2
 z8 | z [B,,B,][B,,B,][D,B,] [E,B,][E,B,][E,B,E][E,G,E] | [D,B,]2 [C,A,][C,A,] [B,,B,]2 z2 | %3
 z [D,B,][D,B,][D,B,] [F,A,F][F,A,F][K:treble][A,CF][A,CF] | %4
 [B,F]2[K:bass] [F,B,][D,B,] [B,,B,]2 z2 | z [B,,B,][B,,B,][D,B,] [E,B,][E,B,][E,B,E][E,G,E] | %6
 [D,B,]2 [C,A,][C,A,] [B,,B,]2 [D,B,]2 | [E,B,E][E,B,][E,B,][E,B,] [F,B,]2 [F,,F,]2 | %8
[M:3/4] [B,,B,]6 |[M:1/4] [F,A,E]2 |[M:4/4] [A,E]2 z2 z4 | D,2 F,2 B,2 [B,,B,]2 | %12
 [D,A,]2 [D,D]2 .[G,DG]2 [C,C]2 | [F,A,F]2 [C,B,]2 [F,A,]2 z2 | %14
 z [B,,B,][B,,B,][D,B,] [E,B,][E,B,][E,B,E][E,G,E] | [D,B,]D,[C,A,][C,A,] [B,,B,]2 [D,B,]2 | %16
 [E,B,E][E,B,][E,B,][E,B,] [F,B,]2 [F,,F,]2 |[M:3/4] [B,,B,]6 |] %18
V:3
 x8 | z FF[FA] [Gc][GB]GB | z2 EE D2 F2 | B4 z4 | z2 FF F2 F2 | z FF[FA] [Gc][GB]GB | z2 EE D2 F2 | %7
 x8 |[M:3/4] x6 |[M:1/4] x2 |[M:4/4] F2 z B, [CEF]2 [CFA]2 | x8 | ^F2 F2 z2 =E2 | z2 =E2 F2 F2 | %14
 z FF[FA] [Gc][GB]GB | z B,EE D2 F2 | x8 |[M:3/4] x6 |] %18
V:4
 x8 | x8 | x8 | x6[K:treble] x2 | x2[K:bass] x6 | x8 | x8 | x8 |[M:3/4] x6 |[M:1/4] x2 | %10
[M:4/4] C2- [A,CE]2 A,G,F,E, | x8 | x8 | x8 | x8 | x8 | x8 |[M:3/4] x6 |] %18

